images/5461335.svg

<?xml version="1.0" encoding="UTF-8"?>
<svg xmlns="http://www.w3.org/2000/svg" xmlns:xlink="http://www.w3.org/1999/xlink" width="300pt" height="300pt" viewBox="0 0 300 300" version="1.1">
<defs>
<g>
<symbol overflow="visible" id="glyph0-0">
<path style="stroke:none;" d="M 0.453125 1.59375 L 0.453125 -6.34375 L 4.953125 -6.34375 L 4.953125 1.59375 Z M 0.953125 1.09375 L 4.453125 1.09375 L 4.453125 -5.84375 L 0.953125 -5.84375 Z M 0.953125 1.09375 "/>
</symbol>
<symbol overflow="visible" id="glyph0-1">
<path style="stroke:none;" d="M 3.546875 -5.953125 C 2.898438 -5.953125 2.382812 -5.710938 2 -5.234375 C 1.625 -4.753906 1.4375 -4.101562 1.4375 -3.28125 C 1.4375 -2.445312 1.625 -1.789062 2 -1.3125 C 2.382812 -0.832031 2.898438 -0.59375 3.546875 -0.59375 C 4.191406 -0.59375 4.703125 -0.832031 5.078125 -1.3125 C 5.453125 -1.789062 5.640625 -2.445312 5.640625 -3.28125 C 5.640625 -4.101562 5.453125 -4.753906 5.078125 -5.234375 C 4.703125 -5.710938 4.191406 -5.953125 3.546875 -5.953125 Z M 3.546875 -6.6875 C 4.460938 -6.6875 5.195312 -6.375 5.75 -5.75 C 6.300781 -5.132812 6.578125 -4.3125 6.578125 -3.28125 C 6.578125 -2.238281 6.300781 -1.410156 5.75 -0.796875 C 5.195312 -0.179688 4.460938 0.125 3.546875 0.125 C 2.617188 0.125 1.878906 -0.179688 1.328125 -0.796875 C 0.773438 -1.410156 0.5 -2.238281 0.5 -3.28125 C 0.5 -4.3125 0.773438 -5.132812 1.328125 -5.75 C 1.878906 -6.375 2.617188 -6.6875 3.546875 -6.6875 Z M 3.546875 -6.6875 "/>
</symbol>
<symbol overflow="visible" id="glyph0-2">
<path style="stroke:none;" d="M 0.890625 -6.5625 L 2.078125 -6.5625 L 4.984375 -1.078125 L 4.984375 -6.5625 L 5.84375 -6.5625 L 5.84375 0 L 4.65625 0 L 1.75 -5.484375 L 1.75 0 L 0.890625 0 Z M 0.890625 -6.5625 "/>
</symbol>
<symbol overflow="visible" id="glyph0-3">
<path style="stroke:none;" d="M 0.890625 -6.5625 L 1.765625 -6.5625 L 1.765625 -3.875 L 5 -3.875 L 5 -6.5625 L 5.890625 -6.5625 L 5.890625 0 L 5 0 L 5 -3.125 L 1.765625 -3.125 L 1.765625 0 L 0.890625 0 Z M 0.890625 -6.5625 "/>
</symbol>
</g>
</defs>
<g id="surface35597">
<rect x="0" y="0" width="300" height="300" style="fill:rgb(100%,100%,100%);fill-opacity:1;stroke:none;"/>
<path style="fill:none;stroke-width:1.2;stroke-linecap:butt;stroke-linejoin:miter;stroke:rgb(0%,0%,0%);stroke-opacity:1;stroke-miterlimit:10;" d="M 35.25 176.019531 L 43.007812 184.765625 "/>
<path style="fill:none;stroke-width:1.2;stroke-linecap:butt;stroke-linejoin:miter;stroke:rgb(100%,0%,0%);stroke-opacity:1;stroke-miterlimit:10;" d="M 43.007812 184.765625 L 50.761719 193.511719 "/>
<path style="fill:none;stroke-width:1.2;stroke-linecap:butt;stroke-linejoin:miter;stroke:rgb(100%,0%,0%);stroke-opacity:1;stroke-miterlimit:10;" d="M 50.761719 193.511719 L 62.214844 191.167969 "/>
<path style="fill:none;stroke-width:1.2;stroke-linecap:butt;stroke-linejoin:miter;stroke:rgb(0%,0%,0%);stroke-opacity:1;stroke-miterlimit:10;" d="M 62.214844 191.167969 L 73.667969 188.824219 "/>
<path style=" stroke:none;fill-rule:nonzero;fill:rgb(100%,100%,100%);fill-opacity:1;" d="M 46.761719 188.011719 L 54.761719 188.011719 L 54.761719 199.011719 L 46.761719 199.011719 Z M 46.761719 188.011719 "/>
<g style="fill:rgb(100%,0%,0%);fill-opacity:1;">
  <use xlink:href="#glyph0-1" x="46.761719" y="196.674805"/>
</g>
<path style="fill:none;stroke-width:1.2;stroke-linecap:butt;stroke-linejoin:miter;stroke:rgb(0%,0%,0%);stroke-opacity:1;stroke-miterlimit:10;" d="M 76.277344 189.695312 L 79.972656 178.605469 "/>
<path style="fill:none;stroke-width:1.2;stroke-linecap:butt;stroke-linejoin:miter;stroke:rgb(100%,0%,0%);stroke-opacity:1;stroke-miterlimit:10;" d="M 79.972656 178.605469 L 83.671875 167.511719 "/>
<path style="fill:none;stroke-width:1.2;stroke-linecap:butt;stroke-linejoin:miter;stroke:rgb(0%,0%,0%);stroke-opacity:1;stroke-miterlimit:10;" d="M 71.058594 187.953125 L 74.753906 176.863281 "/>
<path style="fill:none;stroke-width:1.2;stroke-linecap:butt;stroke-linejoin:miter;stroke:rgb(100%,0%,0%);stroke-opacity:1;stroke-miterlimit:10;" d="M 74.753906 176.863281 L 78.453125 165.773438 "/>
<path style=" stroke:none;fill-rule:nonzero;fill:rgb(0%,0%,0%);fill-opacity:1;" d="M 89.179688 206.316406 L 76.753906 186.085938 L 70.582031 191.5625 Z M 89.179688 206.316406 "/>
<path style=" stroke:none;fill-rule:nonzero;fill:rgb(100%,100%,100%);fill-opacity:1;" d="M 77.0625 161.144531 L 85.0625 161.144531 L 85.0625 172.144531 L 77.0625 172.144531 Z M 77.0625 161.144531 "/>
<g style="fill:rgb(100%,0%,0%);fill-opacity:1;">
  <use xlink:href="#glyph0-1" x="77.0625" y="169.807617"/>
</g>
<path style="fill:none;stroke-width:1.2;stroke-linecap:butt;stroke-linejoin:miter;stroke:rgb(0%,0%,0%);stroke-opacity:1;stroke-miterlimit:10;" d="M 89.179688 206.316406 L 84.148438 229.148438 "/>
<path style="fill:none;stroke-width:1.2;stroke-linecap:butt;stroke-linejoin:miter;stroke:rgb(0%,0%,100%);stroke-opacity:1;stroke-miterlimit:10;" d="M 112.453125 204.050781 L 100.816406 205.183594 "/>
<path style="fill:none;stroke-width:1.2;stroke-linecap:butt;stroke-linejoin:miter;stroke:rgb(0%,0%,0%);stroke-opacity:1;stroke-miterlimit:10;" d="M 100.816406 205.183594 L 89.179688 206.316406 "/>
<path style="fill:none;stroke-width:1.2;stroke-linecap:butt;stroke-linejoin:miter;stroke:rgb(0%,0%,0%);stroke-opacity:1;stroke-miterlimit:10;" d="M 84.148438 229.148438 L 104.304688 240.992188 "/>
<path style="fill:none;stroke-width:1.2;stroke-linecap:butt;stroke-linejoin:miter;stroke:rgb(0%,0%,0%);stroke-opacity:1;stroke-miterlimit:10;" d="M 104.304688 240.992188 L 121.800781 225.480469 "/>
<path style="fill:none;stroke-width:1.2;stroke-linecap:butt;stroke-linejoin:miter;stroke:rgb(0%,0%,0%);stroke-opacity:1;stroke-miterlimit:10;" d="M 121.800781 225.480469 L 117.125 214.765625 "/>
<path style="fill:none;stroke-width:1.2;stroke-linecap:butt;stroke-linejoin:miter;stroke:rgb(0%,0%,100%);stroke-opacity:1;stroke-miterlimit:10;" d="M 117.125 214.765625 L 112.453125 204.050781 "/>
<path style="fill:none;stroke-width:1.2;stroke-linecap:butt;stroke-linejoin:miter;stroke:rgb(0%,0%,100%);stroke-opacity:1;stroke-miterlimit:10;" d="M 112.453125 204.050781 L 118.371094 193.96875 "/>
<path style="fill:none;stroke-width:1.2;stroke-linecap:butt;stroke-linejoin:miter;stroke:rgb(0%,0%,0%);stroke-opacity:1;stroke-miterlimit:10;" d="M 118.371094 193.96875 L 124.292969 183.890625 "/>
<path style=" stroke:none;fill-rule:nonzero;fill:rgb(100%,100%,100%);fill-opacity:1;" d="M 109.453125 198.550781 L 116.453125 198.550781 L 116.453125 209.550781 L 109.453125 209.550781 Z M 109.453125 198.550781 "/>
<g style="fill:rgb(0%,0%,100%);fill-opacity:1;">
  <use xlink:href="#glyph0-2" x="109.453125" y="207.213867"/>
</g>
<path style="fill:none;stroke-width:1.2;stroke-linecap:butt;stroke-linejoin:miter;stroke:rgb(0%,0%,0%);stroke-opacity:1;stroke-miterlimit:10;" d="M 124.273438 186.640625 L 135.964844 186.730469 "/>
<path style="fill:none;stroke-width:1.2;stroke-linecap:butt;stroke-linejoin:miter;stroke:rgb(100%,0%,0%);stroke-opacity:1;stroke-miterlimit:10;" d="M 135.964844 186.730469 L 147.652344 186.816406 "/>
<path style="fill:none;stroke-width:1.2;stroke-linecap:butt;stroke-linejoin:miter;stroke:rgb(0%,0%,0%);stroke-opacity:1;stroke-miterlimit:10;" d="M 124.316406 181.140625 L 136.003906 181.226562 "/>
<path style="fill:none;stroke-width:1.2;stroke-linecap:butt;stroke-linejoin:miter;stroke:rgb(100%,0%,0%);stroke-opacity:1;stroke-miterlimit:10;" d="M 136.003906 181.226562 L 147.695312 181.316406 "/>
<path style=" stroke:none;fill-rule:nonzero;fill:rgb(0%,0%,0%);fill-opacity:1;" d="M 112.757812 163.554688 L 120.707031 185.925781 L 127.882812 181.855469 Z M 112.757812 163.554688 "/>
<path style=" stroke:none;fill-rule:nonzero;fill:rgb(100%,100%,100%);fill-opacity:1;" d="M 143.675781 178.566406 L 151.675781 178.566406 L 151.675781 189.566406 L 143.675781 189.566406 Z M 143.675781 178.566406 "/>
<g style="fill:rgb(100%,0%,0%);fill-opacity:1;">
  <use xlink:href="#glyph0-1" x="143.675781" y="187.229492"/>
</g>
<path style="fill:none;stroke-width:1.2;stroke-linecap:butt;stroke-linejoin:miter;stroke:rgb(0%,0%,0%);stroke-opacity:1;stroke-miterlimit:10;" d="M 112.757812 163.554688 L 92.597656 151.710938 "/>
<path style="fill:none;stroke-width:1.2;stroke-linecap:butt;stroke-linejoin:miter;stroke:rgb(0%,0%,0%);stroke-opacity:1;stroke-miterlimit:10;" d="M 112.933594 140.175781 L 112.757812 163.554688 "/>
<path style="fill:none;stroke-width:1;stroke-linecap:butt;stroke-linejoin:miter;stroke:rgb(0%,0%,0%);stroke-opacity:1;stroke-miterlimit:10;" d="M 112.933594 140.175781 L 112.933594 140.175781 M 110.105469 141.179688 L 110.621094 142.085938 M 107.28125 142.183594 L 108.308594 143.996094 M 104.453125 143.1875 L 105.996094 145.90625 M 101.625 144.191406 L 103.683594 147.820312 M 98.800781 145.195312 L 101.371094 149.730469 M 95.972656 146.199219 L 99.058594 151.640625 M 93.144531 147.203125 L 96.746094 153.554688 M 90.5625 148.121094 L 94.632812 155.300781 "/>
<path style="fill:none;stroke-width:1.2;stroke-linecap:butt;stroke-linejoin:miter;stroke:rgb(0%,0%,0%);stroke-opacity:1;stroke-miterlimit:10;" d="M 112.933594 140.175781 L 124.777344 120.015625 "/>
<path style=" stroke:none;fill-rule:nonzero;fill:rgb(0%,0%,0%);fill-opacity:1;" d="M 124.777344 120.015625 L 116.828125 97.644531 L 109.652344 101.714844 Z M 124.777344 120.015625 "/>
<path style="fill:none;stroke-width:1.2;stroke-linecap:butt;stroke-linejoin:miter;stroke:rgb(0%,0%,0%);stroke-opacity:1;stroke-miterlimit:10;" d="M 124.777344 120.015625 L 136.46875 120.105469 "/>
<path style="fill:none;stroke-width:1.2;stroke-linecap:butt;stroke-linejoin:miter;stroke:rgb(0%,0%,100%);stroke-opacity:1;stroke-miterlimit:10;" d="M 136.46875 120.105469 L 148.15625 120.191406 "/>
<path style="fill:none;stroke-width:1.2;stroke-linecap:butt;stroke-linejoin:miter;stroke:rgb(0%,0%,0%);stroke-opacity:1;stroke-miterlimit:10;" d="M 113.242188 99.679688 L 125.082031 79.519531 "/>
<path style="fill:none;stroke-width:1.2;stroke-linecap:butt;stroke-linejoin:miter;stroke:rgb(0%,0%,0%);stroke-opacity:1;stroke-miterlimit:10;" d="M 109.679688 94.875 L 119.15625 78.75 "/>
<path style="fill:none;stroke-width:1.2;stroke-linecap:butt;stroke-linejoin:miter;stroke:rgb(0%,0%,0%);stroke-opacity:1;stroke-miterlimit:10;" d="M 89.859375 99.503906 L 113.242188 99.679688 "/>
<path style="fill:none;stroke-width:1.2;stroke-linecap:butt;stroke-linejoin:miter;stroke:rgb(0%,0%,0%);stroke-opacity:1;stroke-miterlimit:10;" d="M 125.082031 79.519531 L 113.546875 59.183594 "/>
<path style="fill:none;stroke-width:1.2;stroke-linecap:butt;stroke-linejoin:miter;stroke:rgb(0%,0%,0%);stroke-opacity:1;stroke-miterlimit:10;" d="M 113.546875 59.183594 L 90.167969 59.007812 "/>
<path style="fill:none;stroke-width:1.2;stroke-linecap:butt;stroke-linejoin:miter;stroke:rgb(0%,0%,0%);stroke-opacity:1;stroke-miterlimit:10;" d="M 111.167969 64.667969 L 92.464844 64.527344 "/>
<path style="fill:none;stroke-width:1.2;stroke-linecap:butt;stroke-linejoin:miter;stroke:rgb(0%,0%,0%);stroke-opacity:1;stroke-miterlimit:10;" d="M 90.167969 59.007812 L 78.324219 79.167969 "/>
<path style="fill:none;stroke-width:1.2;stroke-linecap:butt;stroke-linejoin:miter;stroke:rgb(0%,0%,0%);stroke-opacity:1;stroke-miterlimit:10;" d="M 78.324219 79.167969 L 89.859375 99.503906 "/>
<path style="fill:none;stroke-width:1.2;stroke-linecap:butt;stroke-linejoin:miter;stroke:rgb(0%,0%,0%);stroke-opacity:1;stroke-miterlimit:10;" d="M 84.261719 78.484375 L 93.492188 94.753906 "/>
<path style="fill:none;stroke-width:1.2;stroke-linecap:butt;stroke-linejoin:miter;stroke:rgb(0%,0%,100%);stroke-opacity:1;stroke-miterlimit:10;" d="M 148.15625 120.191406 L 153.925781 130.359375 "/>
<path style="fill:none;stroke-width:1.2;stroke-linecap:butt;stroke-linejoin:miter;stroke:rgb(0%,0%,0%);stroke-opacity:1;stroke-miterlimit:10;" d="M 153.925781 130.359375 L 159.695312 140.527344 "/>
<path style=" stroke:none;fill-rule:nonzero;fill:rgb(100%,100%,100%);fill-opacity:1;" d="M 141.15625 114.691406 L 155.15625 114.691406 L 155.15625 125.691406 L 141.15625 125.691406 Z M 141.15625 114.691406 "/>
<g style="fill:rgb(0%,0%,100%);fill-opacity:1;">
  <use xlink:href="#glyph0-2" x="141.15625" y="123.354492"/>
  <use xlink:href="#glyph0-3" x="148.133789" y="123.354492"/>
</g>
<path style="fill:none;stroke-width:1.2;stroke-linecap:butt;stroke-linejoin:miter;stroke:rgb(0%,0%,0%);stroke-opacity:1;stroke-miterlimit:10;" d="M 157.320312 139.132812 L 151.402344 149.214844 "/>
<path style="fill:none;stroke-width:1.2;stroke-linecap:butt;stroke-linejoin:miter;stroke:rgb(100%,0%,0%);stroke-opacity:1;stroke-miterlimit:10;" d="M 151.402344 149.214844 L 145.480469 159.292969 "/>
<path style="fill:none;stroke-width:1.2;stroke-linecap:butt;stroke-linejoin:miter;stroke:rgb(0%,0%,0%);stroke-opacity:1;stroke-miterlimit:10;" d="M 162.066406 141.921875 L 156.144531 152 "/>
<path style="fill:none;stroke-width:1.2;stroke-linecap:butt;stroke-linejoin:miter;stroke:rgb(100%,0%,0%);stroke-opacity:1;stroke-miterlimit:10;" d="M 156.144531 152 L 150.222656 162.082031 "/>
<path style="fill:none;stroke-width:1.2;stroke-linecap:butt;stroke-linejoin:miter;stroke:rgb(0%,0%,0%);stroke-opacity:1;stroke-miterlimit:10;" d="M 159.695312 140.527344 L 171.382812 140.617188 "/>
<path style="fill:none;stroke-width:1.2;stroke-linecap:butt;stroke-linejoin:miter;stroke:rgb(100%,0%,0%);stroke-opacity:1;stroke-miterlimit:10;" d="M 171.382812 140.617188 L 183.074219 140.703125 "/>
<path style=" stroke:none;fill-rule:nonzero;fill:rgb(100%,100%,100%);fill-opacity:1;" d="M 139.851562 155.1875 L 147.851562 155.1875 L 147.851562 166.1875 L 139.851562 166.1875 Z M 139.851562 155.1875 "/>
<g style="fill:rgb(100%,0%,0%);fill-opacity:1;">
  <use xlink:href="#glyph0-1" x="139.851562" y="163.850586"/>
</g>
<path style="fill:none;stroke-width:1.2;stroke-linecap:butt;stroke-linejoin:miter;stroke:rgb(100%,0%,0%);stroke-opacity:1;stroke-miterlimit:10;" d="M 183.074219 140.703125 L 188.84375 150.871094 "/>
<path style="fill:none;stroke-width:1.2;stroke-linecap:butt;stroke-linejoin:miter;stroke:rgb(0%,0%,0%);stroke-opacity:1;stroke-miterlimit:10;" d="M 188.84375 150.871094 L 194.609375 161.039062 "/>
<path style=" stroke:none;fill-rule:nonzero;fill:rgb(100%,100%,100%);fill-opacity:1;" d="M 179.074219 135.203125 L 187.074219 135.203125 L 187.074219 146.203125 L 179.074219 146.203125 Z M 179.074219 135.203125 "/>
<g style="fill:rgb(100%,0%,0%);fill-opacity:1;">
  <use xlink:href="#glyph0-1" x="179.074219" y="143.866211"/>
</g>
<path style="fill:none;stroke-width:1.2;stroke-linecap:butt;stroke-linejoin:miter;stroke:rgb(0%,0%,0%);stroke-opacity:1;stroke-miterlimit:10;" d="M 194.609375 161.039062 L 217.992188 161.21875 "/>
<path style="fill:none;stroke-width:1.2;stroke-linecap:butt;stroke-linejoin:miter;stroke:rgb(0%,0%,0%);stroke-opacity:1;stroke-miterlimit:10;" d="M 217.992188 161.21875 L 229.527344 181.554688 "/>
<path style="fill:none;stroke-width:1.2;stroke-linecap:butt;stroke-linejoin:miter;stroke:rgb(0%,0%,0%);stroke-opacity:1;stroke-miterlimit:10;" d="M 223.929688 160.535156 L 233.160156 176.804688 "/>
<path style="fill:none;stroke-width:1.2;stroke-linecap:butt;stroke-linejoin:miter;stroke:rgb(0%,0%,0%);stroke-opacity:1;stroke-miterlimit:10;" d="M 229.832031 141.058594 L 217.992188 161.21875 "/>
<path style="fill:none;stroke-width:1.2;stroke-linecap:butt;stroke-linejoin:miter;stroke:rgb(0%,0%,0%);stroke-opacity:1;stroke-miterlimit:10;" d="M 229.527344 181.554688 L 252.90625 181.730469 "/>
<path style="fill:none;stroke-width:1.2;stroke-linecap:butt;stroke-linejoin:miter;stroke:rgb(0%,0%,0%);stroke-opacity:1;stroke-miterlimit:10;" d="M 252.90625 181.730469 L 264.75 161.570312 "/>
<path style="fill:none;stroke-width:1.2;stroke-linecap:butt;stroke-linejoin:miter;stroke:rgb(0%,0%,0%);stroke-opacity:1;stroke-miterlimit:10;" d="M 249.347656 176.925781 L 258.824219 160.800781 "/>
<path style="fill:none;stroke-width:1.2;stroke-linecap:butt;stroke-linejoin:miter;stroke:rgb(0%,0%,0%);stroke-opacity:1;stroke-miterlimit:10;" d="M 264.75 161.570312 L 253.214844 141.234375 "/>
<path style="fill:none;stroke-width:1.2;stroke-linecap:butt;stroke-linejoin:miter;stroke:rgb(0%,0%,0%);stroke-opacity:1;stroke-miterlimit:10;" d="M 253.214844 141.234375 L 229.832031 141.058594 "/>
<path style="fill:none;stroke-width:1.2;stroke-linecap:butt;stroke-linejoin:miter;stroke:rgb(0%,0%,0%);stroke-opacity:1;stroke-miterlimit:10;" d="M 250.832031 146.71875 L 232.128906 146.578125 "/>
</g>
</svg>

<svg xmlns="http://www.w3.org/2000/svg" xmlns:xlink="http://www.w3.org/1999/xlink" width="300pt" height="300pt" viewBox="0 0 300 300"><defs><symbol overflow="visible"><path d="M.453 1.594v-7.938h4.5v7.938zm.5-.5h3.5v-6.938h-3.5zm0 0"/></symbol><symbol overflow="visible" id="a"><path d="M3.547-5.953c-.65 0-1.164.242-1.547.72-.375.48-.563 1.13-.563 1.952 0 .835.188 1.49.563 1.967.383.48.898.72 1.547.72.644 0 1.156-.24 1.53-.72.376-.476.564-1.132.564-1.968 0-.822-.187-1.474-.562-1.954-.375-.477-.887-.72-1.53-.72zm0-.734c.914 0 1.648.312 2.203.937.55.617.828 1.438.828 2.47 0 1.042-.277 1.87-.828 2.483-.555.617-1.29.922-2.203.922-.93 0-1.668-.305-2.22-.922C.774-1.41.5-2.237.5-3.28c0-1.033.273-1.853.828-2.47.55-.625 1.29-.938 2.22-.938zm0 0"/></symbol><symbol overflow="visible" id="b"><path d="M.89-6.563H2.08l2.906 5.485v-5.484h.86V0H4.656L1.75-5.484V0H.89zm0 0"/></symbol><symbol overflow="visible" id="c"><path d="M.89-6.563h.876v2.688H5v-2.688h.89V0H5v-3.125H1.766V0H.89zm0 0"/></symbol></defs><g><path fill="#fff" d="M0 0h300v300H0z"/><path d="M35.25 176.02l7.758 8.746" stroke-width="1.2" stroke="#000" stroke-miterlimit="10" fill="none"/><path d="M43.008 184.766l7.754 8.746M50.762 193.512l11.453-2.344" stroke-width="1.2" stroke="#f00" stroke-miterlimit="10" fill="none"/><path d="M62.215 191.168l11.453-2.344" stroke-width="1.2" stroke="#000" stroke-miterlimit="10" fill="none"/><path d="M46.762 188.012h8v11h-8zm0 0" fill="#fff"/><use xlink:href="#a" x="46.762" y="196.675" fill="#f00"/><path d="M76.277 189.695l3.696-11.09" stroke-width="1.2" stroke="#000" stroke-miterlimit="10" fill="none"/><path d="M79.973 178.605l3.7-11.093" stroke-width="1.2" stroke="#f00" stroke-miterlimit="10" fill="none"/><path d="M71.06 187.953l3.694-11.09" stroke-width="1.2" stroke="#000" stroke-miterlimit="10" fill="none"/><path d="M74.754 176.863l3.7-11.09" stroke-width="1.2" stroke="#f00" stroke-miterlimit="10" fill="none"/><path d="M89.18 206.316l-12.426-20.23-6.172 5.476zm0 0"/><path d="M77.063 161.145h8v11h-8zm0 0" fill="#fff"/><use xlink:href="#a" x="77.063" y="169.808" fill="#f00"/><path d="M89.18 206.316l-5.032 22.832" stroke-width="1.2" stroke="#000" stroke-miterlimit="10" fill="none"/><path d="M112.453 204.05l-11.637 1.134" stroke-width="1.2" stroke="#00f" stroke-miterlimit="10" fill="none"/><path d="M100.816 205.184l-11.636 1.132M84.148 229.148l20.157 11.844M104.305 240.992L121.8 225.48M121.8 225.48l-4.675-10.714" stroke-width="1.2" stroke="#000" stroke-miterlimit="10" fill="none"/><path d="M117.125 214.766l-4.672-10.715M112.453 204.05l5.918-10.08" stroke-width="1.2" stroke="#00f" stroke-miterlimit="10" fill="none"/><path d="M118.37 193.97l5.923-10.08" stroke-width="1.2" stroke="#000" stroke-miterlimit="10" fill="none"/><path d="M109.453 198.55h7v11h-7zm0 0" fill="#fff"/><use xlink:href="#b" x="109.453" y="207.214" fill="#00f"/><path d="M124.273 186.64l11.692.09" stroke-width="1.2" stroke="#000" stroke-miterlimit="10" fill="none"/><path d="M135.965 186.73l11.687.086" stroke-width="1.2" stroke="#f00" stroke-miterlimit="10" fill="none"/><path d="M124.316 181.14l11.688.087" stroke-width="1.2" stroke="#000" stroke-miterlimit="10" fill="none"/><path d="M136.004 181.227l11.69.09" stroke-width="1.2" stroke="#f00" stroke-miterlimit="10" fill="none"/><path d="M112.758 163.555l7.95 22.37 7.175-4.07zm0 0"/><path d="M143.676 178.566h8v11h-8zm0 0" fill="#fff"/><use xlink:href="#a" x="143.676" y="187.229" fill="#f00"/><path d="M112.758 163.555l-20.16-11.844M112.934 140.176l-.176 23.38" stroke-width="1.2" stroke="#000" stroke-miterlimit="10" fill="none"/><path d="M112.934 140.176m-2.83 1.004l.517.906m-3.34.098l1.03 1.812m-3.857-.81l1.543 2.72m-4.37-1.715l2.058 3.63m-4.883-2.625l2.57 4.535m-5.397-3.53l3.086 5.44m-5.915-4.437l3.6 6.352m-6.183-5.434l4.07 7.18" stroke="#000" stroke-miterlimit="10" fill="none"/><path d="M112.934 140.176l11.843-20.16" stroke-width="1.2" stroke="#000" stroke-miterlimit="10" fill="none"/><path d="M124.777 120.016l-7.95-22.37-7.175 4.07zm0 0"/><path d="M124.777 120.016l11.692.09" stroke-width="1.2" stroke="#000" stroke-miterlimit="10" fill="none"/><path d="M136.47 120.105l11.686.086" stroke-width="1.2" stroke="#00f" stroke-miterlimit="10" fill="none"/><path d="M113.242 99.68l11.84-20.16M109.68 94.875l9.476-16.125M89.86 99.504l23.382.176M125.082 79.52l-11.535-20.336M113.547 59.184l-23.38-.176M111.168 64.668l-18.703-.14M90.168 59.008l-11.844 20.16M78.324 79.168L89.86 99.504M84.262 78.484l9.23 16.27" stroke-width="1.2" stroke="#000" stroke-miterlimit="10" fill="none"/><path d="M148.156 120.19l5.77 10.17" stroke-width="1.2" stroke="#00f" stroke-miterlimit="10" fill="none"/><path d="M153.926 130.36l5.77 10.167" stroke-width="1.2" stroke="#000" stroke-miterlimit="10" fill="none"/><path d="M141.156 114.69h14v11h-14zm0 0" fill="#fff"/><g fill="#00f"><use xlink:href="#b" x="141.156" y="123.354"/><use xlink:href="#c" x="148.134" y="123.354"/></g><path d="M157.32 139.133l-5.918 10.082" stroke-width="1.2" stroke="#000" stroke-miterlimit="10" fill="none"/><path d="M151.402 149.215l-5.922 10.078" stroke-width="1.2" stroke="#f00" stroke-miterlimit="10" fill="none"/><path d="M162.066 141.922L156.146 152" stroke-width="1.2" stroke="#000" stroke-miterlimit="10" fill="none"/><path d="M156.145 152l-5.922 10.082" stroke-width="1.2" stroke="#f00" stroke-miterlimit="10" fill="none"/><path d="M159.695 140.527l11.688.09" stroke-width="1.2" stroke="#000" stroke-miterlimit="10" fill="none"/><path d="M171.383 140.617l11.69.086" stroke-width="1.2" stroke="#f00" stroke-miterlimit="10" fill="none"/><path d="M139.852 155.188h8v11h-8zm0 0" fill="#fff"/><use xlink:href="#a" x="139.852" y="163.851" fill="#f00"/><path d="M183.074 140.703l5.77 10.168" stroke-width="1.2" stroke="#f00" stroke-miterlimit="10" fill="none"/><path d="M188.844 150.87l5.765 10.17" stroke-width="1.2" stroke="#000" stroke-miterlimit="10" fill="none"/><path d="M179.074 135.203h8v11h-8zm0 0" fill="#fff"/><use xlink:href="#a" x="179.074" y="143.866" fill="#f00"/><path d="M194.61 161.04l23.382.18M217.992 161.22l11.535 20.335M223.93 160.535l9.23 16.27M229.832 141.06l-11.84 20.16M229.527 181.555l23.38.175M252.906 181.73l11.844-20.16M249.348 176.926l9.476-16.125M264.75 161.57l-11.535-20.336M253.215 141.234l-23.383-.175M250.832 146.72l-18.703-.142" stroke-width="1.2" stroke="#000" stroke-miterlimit="10" fill="none"/></g></svg>
